fs/trophy_lock_48_regular.svg

<svg viewBox="0 0 48 48" fill="none" xmlns="http://www.w3.org/2000/svg" height="1em" width="1em">
  <path d="M12 10.5H8.75C8.61193 10.5 8.5 10.6119 8.5 10.75V17.125C8.5 19.2441 10.0066 21.0112 12.007 21.4139C12.0023 21.2765 12 21.1385 12 21V10.5ZM12.3734 23.982C8.81064 23.7251 6 20.7533 6 17.125V10.75C6 9.23122 7.23122 8 8.75 8H12.0072C12.1366 5.76915 13.9867 4 16.25 4H31.75C34.0133 4 35.8634 5.76916 35.9928 8H39.25C40.7688 8 42 9.23122 42 10.75V17.125C42 19.2719 41.0159 21.189 39.4741 22.4498C38.7049 22.1591 37.871 22 37 22C35.6302 22 34.3522 22.3935 33.273 23.0736C33.4216 22.4061 33.5 21.7122 33.5 21V8.25C33.5 7.2835 32.7165 6.5 31.75 6.5H16.25C15.2835 6.5 14.5 7.2835 14.5 8.25V21C14.5 26.2467 18.7533 30.5 24 30.5C25.042 30.5 26.0449 30.3322 26.983 30.0222C26.3962 30.8125 26.0371 31.782 26.0027 32.8336C25.7543 32.8754 25.5033 32.9095 25.25 32.9357V36.5H26V39H17C15.6193 39 14.5 40.1193 14.5 41.5H26V43C26 43.3425 26.0344 43.6769 26.1 44H14C12.8954 44 12 43.1046 12 42V41.5C12 38.7386 14.2386 36.5 17 36.5H22.75V32.9357C17.712 32.4142 13.5993 28.7758 12.3734 23.982ZM35.993 21.4139C37.9934 21.0112 39.5 19.2441 39.5 17.125V10.75C39.5 10.6119 39.3881 10.5 39.25 10.5H36V21C36 21.1385 35.9977 21.2765 35.993 21.4139ZM32 30V29C32 26.2386 34.2386 24 37 24C39.7614 24 42 26.2386 42 29V30H43C44.6569 30 46 31.3431 46 33V43C46 44.6569 44.6569 46 43 46H31C29.3431 46 28 44.6569 28 43V33C28 31.3431 29.3431 30 31 30H32ZM34.5 29V30H39.5V29C39.5 27.6193 38.3807 26.5 37 26.5C35.6193 26.5 34.5 27.6193 34.5 29ZM40 38C40 36.3431 38.6569 35 37 35C35.3431 35 34 36.3431 34 38C34 39.6569 35.3431 41 37 41C38.6569 41 40 39.6569 40 38Z" fill="#212121"/>
</svg>

<svg viewBox="0 0 48 48" fill="none" xmlns="http://www.w3.org/2000/svg" height="1em" width="1em">
  <path d="M12 10.5H8.75a.25.25 0 0 0-.25.25v6.375a4.377 4.377 0 0 0 3.507 4.289A12.108 12.108 0 0 1 12 21V10.5Zm.373 13.482A6.876 6.876 0 0 1 6 17.125V10.75A2.75 2.75 0 0 1 8.75 8h3.257c.13-2.23 1.98-4 4.243-4h15.5a4.25 4.25 0 0 1 4.243 4h3.257A2.75 2.75 0 0 1 42 10.75v6.375a6.861 6.861 0 0 1-2.526 5.325A6.984 6.984 0 0 0 37 22c-1.37 0-2.648.393-3.727 1.074A9.534 9.534 0 0 0 33.5 21V8.25a1.75 1.75 0 0 0-1.75-1.75h-15.5a1.75 1.75 0 0 0-1.75 1.75V21a9.5 9.5 0 0 0 9.5 9.5 9.491 9.491 0 0 0 2.983-.478 4.976 4.976 0 0 0-.98 2.812c-.249.041-.5.075-.753.102V36.5H26V39h-9a2.5 2.5 0 0 0-2.5 2.5H26V43c0 .343.034.677.1 1H14a2 2 0 0 1-2-2v-.5a5 5 0 0 1 5-5h5.75v-3.564c-5.038-.522-9.15-4.16-10.377-8.954Zm23.62-2.568c2-.403 3.507-2.17 3.507-4.289V10.75a.25.25 0 0 0-.25-.25H36V21c0 .139-.002.276-.007.414ZM32 30v-1a5 5 0 0 1 10 0v1h1a3 3 0 0 1 3 3v10a3 3 0 0 1-3 3H31a3 3 0 0 1-3-3V33a3 3 0 0 1 3-3h1Zm2.5-1v1h5v-1a2.5 2.5 0 0 0-5 0Zm5.5 9a3 3 0 1 0-6 0 3 3 0 0 0 6 0Z" fill="#212121"/>
</svg>
